img/input-arrow.svg

<svg width="29" height="16" viewBox="0 0 29 16" fill="none" xmlns="http://www.w3.org/2000/svg">
<path opacity="0.6" fill-rule="evenodd" clip-rule="evenodd" d="M22.8964 1.17274L28.213 7.40868C28.5392 7.79135 28.5392 8.41178 28.213 8.79444L22.8964 15.0304C22.5701 15.413 22.0411 15.413 21.7149 15.0304C21.3886 14.6477 21.3886 14.0273 21.7149 13.6446L25.6053 9.08145H0.888672V7.12168H25.6053L21.7149 2.55851C21.3886 2.17584 21.3886 1.55541 21.7149 1.17274C22.0411 0.790075 22.5701 0.790075 22.8964 1.17274Z" fill="white"/>
</svg>

<svg width="29" height="16" fill="none" xmlns="http://www.w3.org/2000/svg"><path opacity=".6" fill-rule="evenodd" clip-rule="evenodd" d="M22.896 1.173l5.317 6.236a1.103 1.103 0 010 1.385l-5.317 6.236c-.326.383-.855.383-1.181 0a1.103 1.103 0 010-1.385l3.89-4.564H.89v-1.96h24.716l-3.89-4.562a1.103 1.103 0 010-1.386c.326-.383.855-.383 1.181 0z" fill="#fff"/></svg>
